!!!OTL: GESUNDHEIT HERR NACHBAR MEIN GLAESCHEN IST LEER
!!!ARE: Europa, Mitteleuropa, Deutschland
!!!SCT: B0340
!!!YEM: Copyright 1995, estate of Helmut Schaffrath.
**kern
*ICvox
*Ivox
*M3/8
*k[f#]
*G:
{8d
=1
8g
8g
8d
=2
8g
8g
8d
=3
8g
8g
8d
=4
4g}
{8a
=5
8b
8b
8a
=6
8b
8b
8a
=7
8b
8b
8a
=8
4b}
{8dd
=9
8dd
8gg
8b
=10
8dd
8cc
8cc
=11
8cc
8ee
8a
=12
8cc
8b}
{8dd
=13
8dd
8gg
8b
=14
8dd
8cc
8cc
=15
8cc
8ee
8a
=16
8cc
8b}
{8a
=17
8b
8b
8b
=18
8a
8a
8a
=19
8cc#
8cc#
8cc#
=20
4dd}
{8d
=21
8g
16g
16a
16b
16g
=22
8e
8e
8e
=23
8cc
8a
8f#
=24
4g}
{16b
16dd
=25
16dd
16cc
16cc
16b
16cc
16ee
=26
8dd
8dd}
{16b
16dd
=27
8cc
16cc
16b
16cc
16ee
=28
8dd
8dd}
{16b
16dd
=29
16dd
16cc
8b
8a
=30
4g}
==
!!!AGN: Trink - Lied
!!!ONB: ESAC (Essen Associative Code) Database: BOEHME
!!!AMT: simple triple
!!!AIN: vox
!!!EED: Helmut Schaffrath
!!!EEV: 1.0
*-
